X: 21341
Q: "Moderate."
M: C
L: 1/16
K: G
z8 z4 D3G | B2z2 B7 D D3G | (B3d/c/) B4- "^>"B2z2 B2 (dc) | B4 A6 (ed) (Bc)(AB) |\
(A3F) D2z2 z4 D3G | B2z2 "_>"B6 D2 D3G | (B3d/c/) B4 z4 G3B | (d4 "^>"e4) (3(e2d2c2) (3(B2c2A2) |
d2z2 g4 (gfed cBAG) | A2z2 a4- (agfe dcBA) |
z16 | f16- | f4 z4 Hz8 | z8 z4 D3G |
e2z2 "^>"[c4C4] z3d d2fe | d6 c2 B4 B3B | B3A A7 B A3^G | A7 F D2z2 D3G |\
(fe^de =dcBc) A2A2B2c2 | (^cd)(fg) (cd)(^AB) G2z2 =A2B2 | (dcBc BA^GA) F2A2B2c2 | d2z2 g4- g(fed cBAG) |\
ded^c dedc dHz cd (fd)(=cA) | G4 z4 z4 z2d2 |\
g8 z4 z2d2 | g8 z8 | z16 | z4 =f8 f4 |\
=f8 d4 z4 | =f16 | "^>"e8 "^>"d8 | ^c8 =c8 |
"^>"B8 "^>"c8 | "^>"d8 "^>"e8 | A12 A4 | d12 d4 |\
"_8"Z8 |]



